web-magafilio/image/sobre/icon-visao.svg

<svg width="41" height="28" viewBox="0 0 41 28" fill="none" xmlns="http://www.w3.org/2000/svg">
<path d="M40.5635 12.6721C36.7666 5.21902 29.1729 0.156525 20.5947 0.156525C11.9463 0.156525 4.35254 5.21902 0.555664 12.6721C0.415039 12.9534 0.344727 13.3753 0.344727 13.7268C0.344727 14.0081 0.415039 14.43 0.555664 14.7112C4.35254 22.1643 11.9463 27.1565 20.5947 27.1565C29.1729 27.1565 36.7666 22.1643 40.5635 14.7112C40.7041 14.43 40.7744 14.0081 40.7744 13.6565C40.7744 13.3753 40.7041 12.9534 40.5635 12.6721ZM20.5947 23.7815C14.9697 23.7815 10.4697 19.2815 10.4697 13.6565C10.4697 8.10184 14.9697 3.53152 20.5947 3.53152C26.1494 3.53152 30.7197 8.10184 30.7197 13.6565V13.7268C30.7197 19.2815 26.1494 23.7815 20.5947 23.7815ZM20.5947 6.90652C20.0322 6.97684 19.2588 7.04715 18.7666 7.18777C19.1182 7.67996 19.4697 8.59402 19.4697 9.22684C19.4697 11.055 17.9229 12.5315 16.0947 12.5315C15.4619 12.5315 14.5479 12.2503 14.0557 11.8987C13.915 12.3909 13.8447 13.1643 13.8447 13.6565C13.8447 17.3831 16.8682 20.4065 20.5947 20.4065C24.3213 20.4065 27.3447 17.3831 27.3447 13.6565C27.3447 9.92996 24.3213 6.90652 20.5947 6.90652Z" fill="#FDAA08"/>
</svg>

<svg width="41" height="28" fill="none" xmlns="http://www.w3.org/2000/svg"><path d="M40.563 12.672C36.767 5.22 29.173.157 20.595.157 11.946.157 4.353 5.219.555 12.672c-.14.281-.21.703-.21 1.055 0 .281.07.703.21.984 3.798 7.453 11.391 12.446 20.04 12.446 8.578 0 16.172-4.993 19.968-12.446.141-.281.211-.703.211-1.055 0-.28-.07-.703-.21-.984zm-19.968 11.11c-5.625 0-10.125-4.5-10.125-10.126 0-5.554 4.5-10.124 10.125-10.124 5.554 0 10.125 4.57 10.125 10.124v.07c0 5.556-4.57 10.056-10.125 10.056zm0-16.875c-.563.07-1.336.14-1.828.28.351.493.703 1.407.703 2.04 0 1.828-1.547 3.304-3.375 3.304-.633 0-1.547-.28-2.04-.632-.14.492-.21 1.265-.21 1.758a6.752 6.752 0 006.75 6.75 6.752 6.752 0 006.75-6.75 6.752 6.752 0 00-6.75-6.75z" fill="#FDAA08"/></svg>
